img/mechta_logo.svg

<svg width="299" height="72" viewBox="0 0 299 72" fill="none" xmlns="http://www.w3.org/2000/svg">
<g clip-path="url(#clip0_44_676)">
<path d="M40.5732 15.558C36.6355 15.558 32.7861 16.7257 29.512 18.9134C26.2379 21.1011 23.686 24.2105 22.1791 27.8485C20.6722 31.4865 20.2779 35.4897 21.0461 39.3518C21.8144 43.2139 23.7106 46.7614 26.495 49.5458C29.2794 52.3303 32.8269 54.2265 36.689 54.9947C40.5511 55.7629 44.5543 55.3686 48.1923 53.8617C51.8303 52.3548 54.9398 49.8029 57.1275 46.5288C59.3152 43.2547 60.4828 39.4054 60.4828 35.4676C60.4828 30.1873 58.3852 25.1232 54.6515 21.3894C50.9177 17.6556 45.8536 15.558 40.5732 15.558ZM40.5732 50.9545C37.5128 50.9573 34.5204 50.0516 31.9752 48.3522C29.43 46.6528 27.4465 44.2361 26.276 41.4084C25.1055 38.5807 24.8007 35.4691 25.4002 32.468C25.9996 29.4669 27.4765 26.7112 29.6435 24.5502C31.8105 22.3892 34.5702 20.92 37.573 20.3288C40.5758 19.7376 43.6864 20.0511 46.5109 21.2294C49.3354 22.4077 51.7465 24.3979 53.4389 26.9478C55.1313 29.4977 56.0287 32.4926 56.0174 35.5529C55.9912 39.637 54.3543 43.5456 51.4624 46.4296C48.5705 49.3135 44.6573 50.9396 40.5732 50.9545Z" fill="#C3106C"/>
<path d="M49.6887 34.1309L35.4676 27.262C35.23 27.1515 34.9684 27.1029 34.707 27.1208C34.4456 27.1388 34.1931 27.2227 33.9729 27.3647C33.7528 27.5068 33.5722 27.7023 33.4481 27.933C33.324 28.1638 33.2604 28.4222 33.2633 28.6841V42.4503C33.2642 42.7109 33.3301 42.9671 33.4552 43.1958C33.5803 43.4244 33.7605 43.6182 33.9795 43.7594C34.1985 43.9007 34.4493 43.9851 34.7092 44.0048C34.9691 44.0245 35.2298 43.979 35.4676 43.8724L49.6887 36.9893C49.9651 36.8664 50.1999 36.6659 50.3646 36.4122C50.5294 36.1586 50.6171 35.8626 50.6171 35.5601C50.6171 35.2576 50.5294 34.9616 50.3646 34.708C50.1999 34.4543 49.9651 34.2538 49.6887 34.1309Z" fill="#C3106C"/>
<path d="M85.711 39.9473C82.6534 32.7088 79.6385 25.8684 76.3677 19.6111H67.835V51.3954H73.879V27.7314C75.6993 31.5142 78.643 38.4541 82.7956 48.48H87.7019C91.2856 40.1322 94.329 33.2065 96.9457 27.7314V51.3954H103.103V19.6111H94.912C91.3283 26.6363 88.285 33.4341 85.711 39.9473Z" fill="#C3106C"/>
<path d="M117.424 27.7739C109.93 27.7739 106.119 30.7888 106.119 39.6771C106.119 44.1994 107.128 47.1432 109.176 49.0204C111.616 51.0398 114.732 52.0565 117.894 51.8646C120.989 51.8518 124.069 51.4261 127.052 50.5989L126.099 46.1193C123.65 46.7448 121.133 47.0695 118.605 47.0863C116.897 47.2154 115.195 46.7699 113.77 45.8206C112.817 45.01 112.348 43.6448 112.348 41.2698H128.147C128.332 35.6667 127.664 32.4243 125.758 30.4191C123.852 28.4139 121.477 27.7739 117.424 27.7739ZM112.348 36.975C112.675 33.3913 113.969 32.2678 117.638 32.2678C118.272 32.1901 118.916 32.2394 119.531 32.4127C120.146 32.5861 120.721 32.8801 121.222 33.2775C121.979 34.3573 122.359 35.6571 122.302 36.975H112.348Z" fill="#C3106C"/>
<path d="M143.321 32.7087C145.261 32.6999 147.188 33.037 149.01 33.7042L150.346 28.869C147.961 28.09 145.461 27.7197 142.951 27.774C138.998 27.774 136.054 28.6842 133.992 30.5187C131.93 32.3532 130.835 35.169 130.835 39.6771C130.835 44.1852 131.83 47.1432 133.878 49.0204C135.926 50.8976 138.884 51.8646 142.838 51.8646C145.354 51.922 147.859 51.5221 150.233 50.6843L148.896 45.8491C147.085 46.5677 145.155 46.9391 143.207 46.9441C141.446 47.1163 139.685 46.6074 138.287 45.522C137.334 44.5265 136.865 42.8058 136.865 39.8335C137.22 33.3345 138.785 32.7087 143.321 32.7087Z" fill="#C3106C"/>
<path d="M170.654 28.5988C169.123 27.9878 167.48 27.7068 165.833 27.774C163.518 27.791 161.237 28.3357 159.164 29.3667V18.4875H153.262V51.3953H159.164V34.9414C159.164 33.6615 161.211 32.8936 163.828 32.8936C167.27 32.8936 168.692 34.074 168.692 38.7669V51.3953H174.608V38.3119C174.622 32.7087 173.1 29.6512 170.654 28.5988Z" fill="#C3106C"/>
<path d="M189.924 46.9298C187.307 46.9298 186.254 45.6072 186.254 42.8768V33.1068H194.304V28.1863H186.297V21.9432L180.395 24.2613V28.1863H176.342V33.1068H180.395V43.3603C180.395 46.6454 181.007 48.8781 182.301 50.0585C184.083 51.3708 186.283 51.9877 188.487 51.7935C190.752 51.8125 193.005 51.4619 195.157 50.7553L194.119 46.2899C192.758 46.7009 191.345 46.9164 189.924 46.9298Z" fill="#C3106C"/>
<path d="M215.636 29.7791C214.015 28.4565 211.37 27.7739 207.629 27.7739C204.367 27.7826 201.119 28.1982 197.959 29.0112L199.054 33.6615C201.42 32.8761 203.9 32.4916 206.392 32.5238C208.924 32.5238 210.545 32.8367 211.299 33.5193C212.052 34.2019 212.45 35.2543 212.45 37.3021C210.468 36.9114 208.455 36.7019 206.435 36.6764C203.94 36.5051 201.447 37.0373 199.239 38.2123C197.675 39.222 196.907 41.2272 196.907 44.2847C196.907 47.3423 197.618 49.1057 199.097 50.2007C200.576 51.2958 203.292 51.7935 207.16 51.7935C210.874 51.8222 214.57 51.29 218.125 50.215V36.8044C218.125 33.434 217.314 31.1017 215.636 29.7791ZM212.45 46.9299C210.858 47.3106 209.224 47.4921 207.587 47.4703C206.342 47.591 205.088 47.3697 203.96 46.8303C203.392 46.3752 203.107 45.6073 203.107 44.0572C203.107 41.213 204.06 40.7294 207.629 40.7294C209.246 40.7092 210.861 40.8473 212.45 41.1418V46.9299Z" fill="#C3106C"/>
<path d="M226.587 45.0526C223.913 45.0526 223.031 45.465 223.031 48.2382C223.031 51.253 223.913 51.7935 226.587 51.7935C229.26 51.7935 230.27 51.253 230.27 48.2382C230.27 45.5077 229.388 45.0526 226.587 45.0526Z" fill="#C3106C"/>
<path d="M245.771 38.7243C249.101 35.5071 252.115 31.9783 254.773 28.1864H247.989C245.479 31.6488 242.783 34.972 239.912 38.1412V18.4875H234.223V51.3953H239.912V39.8193C243.138 43.4302 246.086 47.281 248.729 51.3384H255.47C250.478 43.6875 246.98 39.4496 245.771 38.7243Z" fill="#C3106C"/>
<path d="M278.366 28.1864H258.129V33.1069H269.62C267.359 36.8471 261.827 44.6545 257.404 50.2576V51.3953H278.11V46.4748H266.349C269.435 42.5924 275.109 34.6144 278.423 29.3241L278.366 28.1864Z" fill="#C3106C"/>
</g>
<defs>
<clipPath id="clip0_44_676">
<rect width="299" height="71.0063" fill="white"/>
</clipPath>
</defs>
</svg>

<svg width="299" height="72" fill="none" xmlns="http://www.w3.org/2000/svg"><g clip-path="url(#a)" fill="#C3106C"><path d="M40.573 15.558a19.91 19.91 0 1 0 0 39.82 19.91 19.91 0 0 0 0-39.82Zm0 35.397a15.458 15.458 0 1 1 15.444-15.402 15.501 15.501 0 0 1-15.444 15.402Z"/><path d="m49.689 34.13-14.221-6.868a1.552 1.552 0 0 0-2.205 1.422V42.45a1.564 1.564 0 0 0 2.205 1.422l14.22-6.883a1.563 1.563 0 0 0 0-2.858ZM85.711 39.947c-3.058-7.238-6.073-14.079-9.343-20.336h-8.533v31.784h6.044V27.731c1.82 3.783 4.764 10.723 8.917 20.749h4.906c3.584-8.348 6.627-15.273 9.244-20.749v23.664h6.157V19.611h-8.191a234.206 234.206 0 0 0-9.201 20.336ZM117.424 27.774c-7.494 0-11.305 3.015-11.305 11.903 0 4.522 1.009 7.466 3.057 9.343a12.486 12.486 0 0 0 8.718 2.845 34.811 34.811 0 0 0 9.158-1.266l-.953-4.48c-2.449.626-4.966.95-7.494.967a7.677 7.677 0 0 1-4.835-1.265c-.953-.811-1.422-2.176-1.422-4.551h15.799c.185-5.603-.483-8.846-2.389-10.85-1.906-2.006-4.281-2.646-8.334-2.646Zm-5.076 9.201c.327-3.584 1.621-4.707 5.29-4.707a4.82 4.82 0 0 1 3.584 1.01 5.99 5.99 0 0 1 1.08 3.697h-9.954ZM143.321 32.709c1.94-.01 3.867.328 5.689.995l1.336-4.835a22.266 22.266 0 0 0-7.395-1.095c-3.953 0-6.897.91-8.959 2.745-2.062 1.834-3.157 4.65-3.157 9.158 0 4.508.995 7.466 3.043 9.343 2.048 1.878 5.006 2.845 8.96 2.845a20.794 20.794 0 0 0 7.395-1.18l-1.337-4.836a15.533 15.533 0 0 1-5.689 1.095 6.925 6.925 0 0 1-4.92-1.422c-.953-.995-1.422-2.716-1.422-5.688.355-6.5 1.92-7.125 6.456-7.125ZM170.654 28.599a11.718 11.718 0 0 0-4.821-.825 15.228 15.228 0 0 0-6.669 1.593v-10.88h-5.902v32.908h5.902V34.941c0-1.28 2.047-2.047 4.664-2.047 3.442 0 4.864 1.18 4.864 5.873v12.628h5.916V38.312c.014-5.603-1.508-8.66-3.954-9.713ZM189.924 46.93c-2.617 0-3.67-1.323-3.67-4.053v-9.77h8.05v-4.92h-8.007v-6.244l-5.902 2.318v3.925h-4.053v4.92h4.053V43.36c0 3.285.612 5.518 1.906 6.699a9.088 9.088 0 0 0 6.186 1.735 20.821 20.821 0 0 0 6.67-1.039l-1.038-4.465a15.003 15.003 0 0 1-4.195.64ZM215.636 29.78c-1.621-1.324-4.266-2.006-8.007-2.006-3.262.009-6.51.424-9.67 1.237l1.095 4.65a22.374 22.374 0 0 1 7.338-1.137c2.532 0 4.153.313 4.907.995.753.683 1.151 1.735 1.151 3.783a33.27 33.27 0 0 0-6.015-.626 13.369 13.369 0 0 0-7.196 1.536c-1.564 1.01-2.332 3.015-2.332 6.073 0 3.057.711 4.82 2.19 5.916 1.479 1.095 4.195 1.593 8.063 1.593 3.714.028 7.41-.504 10.965-1.579v-13.41c0-3.371-.811-5.703-2.489-7.026Zm-3.186 17.15a19.78 19.78 0 0 1-4.863.54 6.87 6.87 0 0 1-3.627-.64c-.568-.455-.853-1.223-.853-2.773 0-2.844.953-3.328 4.522-3.328a24.76 24.76 0 0 1 4.821.413v5.788ZM226.587 45.053c-2.674 0-3.556.412-3.556 3.185 0 3.015.882 3.556 3.556 3.556 2.673 0 3.683-.541 3.683-3.556 0-2.73-.882-3.185-3.683-3.185ZM245.771 38.724a72.577 72.577 0 0 0 9.002-10.538h-6.784a117.874 117.874 0 0 1-8.077 9.955V18.488h-5.689v32.907h5.689V39.82a95.657 95.657 0 0 1 8.817 11.52h6.741c-4.992-7.651-8.49-11.89-9.699-12.615ZM278.366 28.186h-20.237v4.92h11.491c-2.261 3.741-7.793 11.548-12.216 17.152v1.137h20.706v-4.92h-11.761c3.086-3.883 8.76-11.86 12.074-17.15l-.057-1.139Z"/></g><defs><clipPath id="a"><path fill="#fff" d="M0 0h299v71.006H0z"/></clipPath></defs></svg>
